X: 17
T: Ballydesmond, The
Z: timbo1001
S: https://thesession.org/tunes/238#setting53632
R: polka
M: 2/4
L: 1/8
K: Ador
|:EA AB |cd e2|G>F GA |BE ED|
EA AB |cd e>f|g/f/e dB |A2A2:|
|:ea a>b| ag ef|g>f ga| ge ed|
ea a>b| ag ef| g/f/e dB |A2A2:|

